X:1
T:Passing By
M:2/4
L:1/4
K:G
 B B3/4 B/4| A d| B G| A2| B B/2B/2| B A| G- F/2E/2| A2| B A/2A/2|\
 G B| d G| G3/2 G/2| c B| A e| A A| G3/2 z/2|
